public/images/rafinda-logo-white.svg

<svg width="125" height="32" viewBox="0 0 125 32" fill="none" xmlns="http://www.w3.org/2000/svg">
<path fill-rule="evenodd" clip-rule="evenodd" d="M26.4607 7.07028L14.5364 0.175166C14.1326 -0.0583887 13.6366 -0.0583887 13.2346 0.175166L1.31026 7.07028L0.720546 7.41181C0.698819 7.42281 0.677319 7.43445 0.656076 7.44673L0.65086 7.45022C0.248858 7.68378 0 8.11429 0 8.57966V23.1245C0 23.59 0.248858 24.0205 0.65086 24.254L12.577 31.1508L13.1943 31.5061C13.2071 31.514 13.2199 31.5217 13.233 31.5291C13.6367 31.7627 14.1326 31.7609 14.5364 31.5274L15.189 31.1492L21.4762 27.5137L25.589 29.8925C26.1267 30.2045 26.7915 30.2045 27.3293 29.8925L31.8766 27.2624C32.4143 26.9504 32.7468 26.3752 32.7468 25.753V20.4945C32.7468 19.8706 32.4161 19.2954 31.8766 18.9852L27.766 16.6076V8.57798L27.7658 8.55882C27.7591 8.1008 27.5115 7.67885 27.115 7.4485L26.4607 7.07028ZM25.1539 16.6067V10.8466C23.6128 11.7372 22.3673 13.0074 21.508 14.4987C20.6483 15.9908 20.1732 17.7041 20.1732 19.4871V13.724L15.1891 16.606V28.1287L20.1715 25.2485V20.4945C20.1715 19.8723 20.504 19.2971 21.0416 18.9852L25.1539 16.6067ZM25.1539 10.8438V10.8466L25.1435 10.8498L25.1539 10.8438ZM65.7967 25.4346C65.6431 25.4346 65.5124 25.3809 65.4048 25.2734C65.2973 25.1659 65.2434 25.0355 65.2434 24.8819V15.9222H63.3762C63.2225 15.9222 63.0919 15.8684 62.9843 15.7609C62.8767 15.6534 62.8229 15.523 62.8229 15.3694V14.0105C62.8229 13.8569 62.8767 13.7264 62.9843 13.6189C63.0919 13.5114 63.2225 13.4577 63.3762 13.4577H65.2434V12.5364C65.2434 11.1391 65.62 10.1026 66.373 9.42697C67.1261 8.73598 68.2634 8.3905 69.7848 8.3905H71.3754C71.5292 8.3905 71.6598 8.44423 71.7674 8.55173C71.8749 8.65921 71.9287 8.78973 71.9287 8.94327V10.3022C71.9287 10.4558 71.8749 10.5862 71.7674 10.6937C71.6598 10.8012 71.5292 10.855 71.3754 10.855H69.9C69.3007 10.855 68.8781 11.0009 68.6322 11.2926C68.3863 11.5844 68.2634 12.0374 68.2634 12.6515V13.4577H71.145C71.2986 13.4577 71.4293 13.5114 71.5368 13.6189C71.6444 13.7264 71.6982 13.8569 71.6982 14.0105V15.3694C71.6982 15.523 71.6444 15.6534 71.5368 15.7609C71.4293 15.8684 71.2986 15.9222 71.145 15.9222H68.2634V24.8819C68.2634 25.0355 68.2096 25.1659 68.102 25.2734C68.0098 25.3809 67.8791 25.4346 67.7101 25.4346H65.7967ZM52.1868 25.2044C52.8477 25.5114 53.57 25.665 54.3538 25.665C55.2759 25.665 56.0443 25.5114 56.659 25.2044C57.2738 24.8819 57.7502 24.475 58.0883 23.9836V24.8819C58.0883 25.0355 58.1421 25.1659 58.2497 25.2734C58.3573 25.3809 58.4879 25.4346 58.6416 25.4346H60.5549C60.724 25.4346 60.8547 25.3809 60.9468 25.2734C61.0544 25.1659 61.1082 25.0355 61.1082 24.8819V17.6497C61.1082 16.3291 60.6933 15.2619 59.8634 14.4481C59.0335 13.6342 57.7118 13.2273 55.8983 13.2273C54.7918 13.2273 53.862 13.4116 53.1089 13.7802C52.3559 14.1333 51.7949 14.5556 51.4261 15.0469C51.0726 15.523 50.8882 15.9529 50.8728 16.3367C50.8728 16.4903 50.9189 16.6132 51.0111 16.7053C51.1188 16.7974 51.2417 16.8435 51.38 16.8435H53.1781C53.3472 16.8435 53.4624 16.7514 53.5239 16.5671L53.8927 16.1985C54.0925 15.9989 54.3461 15.807 54.6535 15.6227C54.9608 15.4384 55.3681 15.3463 55.8752 15.3463C56.613 15.3463 57.1508 15.5152 57.4889 15.8531C57.827 16.1909 57.9961 16.6899 57.9961 17.3502V17.8339L54.8379 18.2945C53.3625 18.5249 52.2022 18.9625 51.3569 19.6074C50.5116 20.2523 50.089 21.0968 50.089 22.141C50.089 22.7859 50.2735 23.3771 50.6423 23.9145C51.0265 24.4519 51.5414 24.8819 52.1868 25.2044ZM57.2123 22.6247C56.6744 23.1774 55.9829 23.4539 55.1376 23.4539C54.5689 23.4539 54.0771 23.3234 53.6622 23.0623C53.2626 22.7859 53.0629 22.402 53.0629 21.9107C53.0629 21.0047 53.9465 20.4135 55.7139 20.1372L58.0191 19.7686V20.2293C58.0191 21.2735 57.7502 22.0719 57.2123 22.6247ZM41.5565 25.2734C41.6641 25.3809 41.7947 25.4346 41.9484 25.4346H44C44.1537 25.4346 44.2844 25.3809 44.392 25.2734C44.4995 25.1659 44.5533 25.0355 44.5533 24.8819V18.5709C44.5533 17.8492 44.7608 17.2811 45.1758 16.8665C45.5907 16.452 46.1593 16.2446 46.8817 16.2446H48.7028C48.8718 16.2446 49.0025 16.1909 49.0947 16.0834C49.2023 15.9759 49.2561 15.8454 49.2561 15.6919V14.0105C49.2561 13.8416 49.2023 13.711 49.0947 13.6189C49.0025 13.5114 48.8718 13.4577 48.7028 13.4577H47.7346C46.29 13.4577 45.1834 13.9644 44.415 14.9779V14.0335C44.415 13.8646 44.3612 13.7264 44.2537 13.6189C44.146 13.5114 44.0077 13.4577 43.8387 13.4577H41.9484C41.7947 13.4577 41.6641 13.5114 41.5565 13.6189C41.4489 13.7264 41.3951 13.8646 41.3951 14.0335V24.8819C41.3951 25.0355 41.4489 25.1659 41.5565 25.2734ZM73.5895 11.3387C73.697 11.4462 73.8276 11.4999 73.9813 11.4999H76.1022C76.2558 11.4999 76.3865 11.4462 76.4941 11.3387C76.617 11.2312 76.6785 11.1006 76.6785 10.9472V9.26574C76.6785 9.09683 76.6247 8.95863 76.5172 8.85115C76.4095 8.74366 76.2712 8.68992 76.1022 8.68992H73.9813C73.8276 8.68992 73.697 8.74366 73.5895 8.85115C73.4818 8.95863 73.4281 9.09683 73.4281 9.26574V10.9472C73.4281 11.1006 73.4818 11.2312 73.5895 11.3387ZM73.6816 25.2734C73.7892 25.3809 73.9199 25.4346 74.0736 25.4346H76.033C76.1867 25.4346 76.3173 25.3809 76.4249 25.2734C76.5324 25.1659 76.5863 25.0355 76.5863 24.8819V14.0105C76.5863 13.8569 76.5324 13.7264 76.4249 13.6189C76.3173 13.5114 76.1867 13.4577 76.033 13.4577H74.0736C73.9199 13.4577 73.7892 13.5114 73.6816 13.6189C73.5741 13.711 73.5203 13.8416 73.5203 14.0105V24.8819C73.5203 25.0355 73.5741 25.1659 73.6816 25.2734ZM80.1744 25.4346C80.0207 25.4346 79.8901 25.3809 79.7825 25.2734C79.6749 25.1659 79.6211 25.0355 79.6211 24.8819V14.0105C79.6211 13.8416 79.6749 13.711 79.7825 13.6189C79.8901 13.5114 80.0207 13.4577 80.1744 13.4577H82.0877C82.2568 13.4577 82.3874 13.5114 82.4797 13.6189C82.5872 13.711 82.641 13.8416 82.641 14.0105V14.9548C83.5785 13.8031 84.8617 13.2273 86.4908 13.2273C87.9047 13.2273 89.0267 13.688 89.8565 14.6093C90.6864 15.5306 91.1014 16.7974 91.1014 18.4097V24.8819C91.1014 25.0355 91.0475 25.1659 90.94 25.2734C90.8477 25.3809 90.7171 25.4346 90.5481 25.4346H88.4734C88.3197 25.4346 88.1891 25.3809 88.0814 25.2734C87.9739 25.1659 87.92 25.0355 87.92 24.8819V18.5479C87.92 17.6573 87.6973 16.9664 87.2515 16.4749C86.8212 15.9682 86.1988 15.7149 85.3843 15.7149C84.6005 15.7149 83.9704 15.9682 83.494 16.4749C83.0176 16.9817 82.7793 17.6726 82.7793 18.5479V24.8819C82.7793 25.0355 82.7255 25.1659 82.618 25.2734C82.5258 25.3809 82.3951 25.4346 82.2261 25.4346H80.1744ZM95.3431 25.2044C96.0039 25.5114 96.7262 25.665 97.5101 25.665C98.4325 25.665 99.2001 25.5114 99.8157 25.2044C100.43 24.8819 100.907 24.475 101.245 23.9836V24.8819C101.245 25.0355 101.298 25.1659 101.406 25.2734C101.513 25.3809 101.644 25.4346 101.798 25.4346H103.711C103.88 25.4346 104.011 25.3809 104.103 25.2734C104.211 25.1659 104.264 25.0355 104.264 24.8819V17.6497C104.264 16.3291 103.849 15.2619 103.019 14.4481C102.189 13.6342 100.868 13.2273 99.055 13.2273C97.9484 13.2273 97.0182 13.4116 96.2652 13.7802C95.512 14.1333 94.9511 14.5556 94.5823 15.0469C94.2288 15.523 94.0444 15.9529 94.0291 16.3367C94.0291 16.4903 94.0751 16.6132 94.1674 16.7053C94.2749 16.7974 94.3978 16.8435 94.5362 16.8435H96.3344C96.5033 16.8435 96.6186 16.7514 96.6801 16.5671L97.0489 16.1985C97.2487 15.9989 97.5023 15.807 97.8101 15.6227C98.117 15.4384 98.5241 15.3463 99.0316 15.3463C99.7689 15.3463 100.307 15.5152 100.646 15.8531C100.984 16.1909 101.152 16.6899 101.152 17.3502V17.8339L97.9942 18.2945C96.5187 18.5249 95.3585 18.9625 94.5132 19.6074C93.6679 20.2523 93.2453 21.0968 93.2453 22.141C93.2453 22.7859 93.4296 23.3771 93.7985 23.9145C94.1827 24.4519 94.6976 24.8819 95.3431 25.2044ZM100.369 22.6247C99.8303 23.1774 99.1387 23.4539 98.2942 23.4539C97.7254 23.4539 97.2334 23.3234 96.8184 23.0623C96.4188 22.7859 96.219 22.402 96.219 21.9107C96.219 21.0047 97.1027 20.4135 98.8699 20.1372L101.175 19.7686V20.2293C101.175 21.2735 100.907 22.0719 100.369 22.6247ZM111.671 25.665C110.118 25.665 108.927 25.1737 108.097 24.1909C107.267 23.1928 106.814 21.8646 106.737 20.2062L106.714 19.4462L106.737 18.6861C106.799 17.0585 107.245 15.7456 108.075 14.7475C108.919 13.7341 110.118 13.2273 111.671 13.2273C113.146 13.2273 114.321 13.7341 115.198 14.7475V9.63425C115.198 9.46535 115.251 9.33483 115.359 9.2427C115.467 9.13522 115.597 9.08147 115.751 9.08147H117.757C117.925 9.08147 118.056 9.13522 118.148 9.2427C118.255 9.33483 118.31 9.46535 118.31 9.63425V24.8819C118.31 25.0355 118.255 25.1659 118.148 25.2734C118.056 25.3809 117.925 25.4346 117.757 25.4346H115.889C115.736 25.4346 115.605 25.3809 115.497 25.2734C115.39 25.1659 115.336 25.0355 115.336 24.8819V24.0297C114.491 25.1199 113.269 25.665 111.671 25.665ZM112.546 23.1774C113.422 23.1774 114.068 22.901 114.483 22.3483C114.913 21.7801 115.151 21.0815 115.198 20.2523C115.212 20.068 115.22 19.7763 115.22 19.3771C115.22 18.9625 115.212 18.6631 115.198 18.4788C115.167 17.7111 114.929 17.0585 114.483 16.521C114.037 15.9835 113.392 15.7149 112.546 15.7149C110.902 15.7149 110.026 16.7283 109.919 18.7552L109.895 19.4462L109.919 20.1372C110.026 22.164 110.902 23.1774 112.546 23.1774ZM121.404 25.2734C121.513 25.3809 121.643 25.4346 121.796 25.4346H124.125C124.294 25.4346 124.424 25.3809 124.517 25.2734C124.625 25.1659 124.678 25.0355 124.678 24.8819V22.5556C124.678 22.402 124.625 22.2715 124.517 22.164C124.409 22.0565 124.279 22.0028 124.125 22.0028H121.796C121.643 22.0028 121.513 22.0565 121.404 22.164C121.297 22.2715 121.243 22.402 121.243 22.5556V24.8819C121.243 25.0355 121.297 25.1659 121.404 25.2734Z" fill="#FDFDFD"/>
</svg>

<svg xmlns="http://www.w3.org/2000/svg" width="125" height="32" fill="none"><path fill="#FDFDFD" fill-rule="evenodd" d="M26.46 7.07 14.537.175a1.297 1.297 0 0 0-1.301 0L1.31 7.07l-.59.342a1.322 1.322 0 0 0-.064.035l-.005.003C.249 7.684 0 8.114 0 8.58v14.545c0 .465.249.895.65 1.129l11.927 6.897.617.355.039.023a1.3 1.3 0 0 0 1.303-.002l.653-.378 6.287-3.635 4.113 2.378a1.735 1.735 0 0 0 1.74 0l4.548-2.63c.537-.312.87-.887.87-1.509v-5.259c0-.623-.33-1.199-.87-1.509l-4.111-2.377V8.558a1.308 1.308 0 0 0-.651-1.11l-.654-.378Zm-1.306 9.537v-5.76a9.983 9.983 0 0 0-4.98 8.64v-5.763l-4.985 2.882v11.523l4.983-2.88v-4.755c0-.622.332-1.197.87-1.509l4.112-2.378Zm0-5.763v.003l-.01.003.01-.006Zm40.643 14.59a.534.534 0 0 1-.392-.16.533.533 0 0 1-.162-.392v-8.96h-1.867a.534.534 0 0 1-.392-.161.533.533 0 0 1-.161-.392v-1.358c0-.154.054-.285.161-.392a.534.534 0 0 1 .392-.161h1.867v-.922c0-1.397.377-2.433 1.13-3.109.753-.691 1.89-1.037 3.412-1.037h1.59c.154 0 .285.054.392.162a.533.533 0 0 1 .162.391v1.36a.533.533 0 0 1-.162.39.534.534 0 0 1-.392.162H69.9c-.6 0-1.022.146-1.268.438-.246.291-.369.744-.369 1.359v.806h2.882c.154 0 .284.053.392.16a.533.533 0 0 1 .161.393v1.358a.533.533 0 0 1-.161.392.534.534 0 0 1-.392.161h-2.882v8.96a.533.533 0 0 1-.161.391.488.488 0 0 1-.392.162h-1.913Zm-13.61-.23a5.08 5.08 0 0 0 2.167.461c.922 0 1.69-.154 2.305-.46.615-.323 1.091-.73 1.43-1.221v.898c0 .153.053.284.16.391a.534.534 0 0 0 .393.162h1.913c.169 0 .3-.054.392-.162a.533.533 0 0 0 .161-.391V17.65c0-1.32-.415-2.388-1.245-3.202-.83-.814-2.151-1.22-3.965-1.22-1.106 0-2.036.184-2.79.552-.752.353-1.313.776-1.682 1.267-.353.476-.538.906-.553 1.29 0 .153.046.276.138.368.108.092.23.139.369.139h1.798c.17 0 .284-.093.346-.277l.369-.369c.2-.2.453-.391.76-.575.308-.185.715-.277 1.222-.277.738 0 1.276.17 1.614.507.338.338.507.837.507 1.497v.484l-3.158.46c-1.476.23-2.636.668-3.481 1.313-.845.645-1.268 1.49-1.268 2.534 0 .645.184 1.236.553 1.774.384.537.9.967 1.545 1.29Zm5.025-2.58c-.538.553-1.23.83-2.074.83-.57 0-1.06-.13-1.476-.392-.4-.276-.6-.66-.6-1.151 0-.906.885-1.498 2.652-1.774l2.305-.368v.46c0 1.044-.269 1.843-.807 2.396Zm-15.656 2.65a.534.534 0 0 0 .392.16H44a.534.534 0 0 0 .392-.16.533.533 0 0 0 .161-.392V18.57c0-.722.208-1.29.623-1.705.415-.414.983-.621 1.706-.621h1.82c.17 0 .3-.054.393-.162a.533.533 0 0 0 .161-.391V14.01c0-.17-.054-.3-.161-.392a.488.488 0 0 0-.392-.161h-.968c-1.445 0-2.552.506-3.32 1.52v-.944a.561.561 0 0 0-.161-.415.562.562 0 0 0-.415-.161h-1.89a.534.534 0 0 0-.392.16.56.56 0 0 0-.162.415v10.849c0 .153.054.284.161.391ZM73.59 11.338a.533.533 0 0 0 .391.16h2.121a.534.534 0 0 0 .392-.16.502.502 0 0 0 .184-.392V9.266a.561.561 0 0 0-.16-.415.562.562 0 0 0-.416-.161h-2.12a.533.533 0 0 0-.392.161.56.56 0 0 0-.162.415v1.681c0 .154.054.284.162.392Zm.092 13.934a.534.534 0 0 0 .392.162h1.959a.534.534 0 0 0 .392-.162.533.533 0 0 0 .161-.391V14.01a.533.533 0 0 0-.161-.391.534.534 0 0 0-.392-.161h-1.96a.534.534 0 0 0-.391.16.488.488 0 0 0-.162.393v10.87c0 .154.054.285.162.392Zm6.492.162a.534.534 0 0 1-.392-.162.533.533 0 0 1-.16-.391V14.01c0-.168.053-.299.16-.391a.534.534 0 0 1 .392-.161h1.914c.169 0 .3.053.392.16a.488.488 0 0 1 .161.393v.944c.938-1.152 2.22-1.728 3.85-1.728 1.414 0 2.536.461 3.365 1.382.83.922 1.245 2.188 1.245 3.8v6.473a.533.533 0 0 1-.161.391.488.488 0 0 1-.392.162h-2.075a.534.534 0 0 1-.392-.162.533.533 0 0 1-.161-.391v-6.334c0-.89-.223-1.582-.669-2.073-.43-.507-1.052-.76-1.867-.76-.784 0-1.414.253-1.89.76s-.715 1.198-.715 2.073v6.334a.533.533 0 0 1-.161.391.488.488 0 0 1-.392.162h-2.052Zm15.17-.23a5.08 5.08 0 0 0 2.166.46c.922 0 1.69-.154 2.306-.46.614-.323 1.091-.73 1.429-1.221v.898a.53.53 0 0 0 .161.391.533.533 0 0 0 .392.162h1.913c.169 0 .3-.054.392-.162a.53.53 0 0 0 .161-.391V17.65c0-1.32-.415-2.388-1.245-3.202-.83-.814-2.151-1.22-3.964-1.22-1.107 0-2.037.184-2.79.552-.753.353-1.314.776-1.683 1.267-.353.476-.538.906-.553 1.29 0 .153.046.276.138.368a.55.55 0 0 0 .37.139h1.797c.17 0 .285-.093.346-.277l.369-.369c.2-.2.453-.391.761-.575.307-.185.714-.277 1.222-.277.737 0 1.275.17 1.614.507.338.338.506.837.506 1.497v.484l-3.158.46c-1.475.23-2.635.668-3.48 1.313-.846.645-1.269 1.49-1.269 2.534 0 .645.185 1.236.553 1.774.385.537.9.967 1.545 1.29Zm5.025-2.58c-.539.552-1.23.829-2.075.829-.569 0-1.06-.13-1.476-.392-.4-.276-.599-.66-.599-1.151 0-.906.884-1.498 2.65-1.774l2.306-.368v.46c0 1.044-.268 1.843-.806 2.396Zm11.302 3.04c-1.553 0-2.744-.491-3.574-1.474-.83-.998-1.283-2.326-1.36-3.985l-.023-.76.023-.76c.062-1.628.508-2.94 1.338-3.938.844-1.014 2.043-1.52 3.596-1.52 1.475 0 2.65.506 3.527 1.52V9.634c0-.169.053-.3.161-.391a.534.534 0 0 1 .392-.162h2.006c.168 0 .299.054.391.162a.49.49 0 0 1 .162.391v15.248a.535.535 0 0 1-.162.391.487.487 0 0 1-.391.162h-1.868a.536.536 0 0 1-.392-.162.535.535 0 0 1-.161-.391v-.852c-.845 1.09-2.067 1.635-3.665 1.635Zm.875-2.488c.876 0 1.522-.276 1.937-.829.43-.568.668-1.267.715-2.096.014-.184.022-.476.022-.875 0-.415-.008-.714-.022-.898-.031-.768-.269-1.42-.715-1.958-.446-.538-1.091-.806-1.937-.806-1.644 0-2.52 1.013-2.627 3.04l-.024.691.024.691c.107 2.027.983 3.04 2.627 3.04Zm8.858 2.096a.537.537 0 0 0 .392.162h2.329a.49.49 0 0 0 .392-.162.53.53 0 0 0 .161-.391v-2.326a.53.53 0 0 0-.161-.392.534.534 0 0 0-.392-.161h-2.329a.537.537 0 0 0-.392.161.535.535 0 0 0-.161.392v2.326c0 .153.054.284.161.391Z" clip-rule="evenodd"/></svg>
